X:29
T:Boys of Malin
M:4/4
L:1/8
R:Reel
K:A
|:ABcd eAce|fAdf edcB|ABcd eAce|fdBc d2cB|
|ABcd eAce|fAdf edcB|ABcd eAce|fdBc defg|
|a2aaa2 aa|a2g2 f2e2|a2g2f2e2|dcBc defg|
|a2aaa2 aa|a2g2 f2e2|a2g2f2e2|dcBc d2cB|
|A2ce Aece|Aece d2cB|A2ce Aece|fdBc d2cB|
|A2ce Aece|Aece d2cB|A2ce Aece|fdBc d2cB:|
